usr/share/icons/biglinux-icons-material/32/actions/mail-replied.svg

<svg version="1.1" viewBox="0 0 32 32" xmlns="http://www.w3.org/2000/svg">
 <defs>
  <style id="current-color-scheme" type="text/css">.ColorScheme-Text {
        color:#dedede;
      }</style>
 </defs>
 <path class="ColorScheme-Text" d="m16 2.6309c-0.66297 1e-7 -1.327 0.18184-1.8301 0.54688l-2.5117 1.8223h-3.6582c-1.662 0-3 1.338-3 3v1.832l-2.9883 2.168h-0.011719v4h1v-3h2.9102l3.8672 3 0.80273 0.62305 3.6035 2.7949c0.99892 0.7749 2.6339 0.7749 3.6328 0l3.6035-2.7949 7.5801 5.8809v0.49609c0 1.662-1.338 3-3 3h-17v1h17c2.1257 0 3.8489-1.6427 3.9863-3.7324l0.013672 0.011719v-11.279h-0.01367l-2.9863-2.168v-1.832c0-1.662-1.338-3-3-3h-3.6602l-2.5117-1.8223c-0.50312-0.36503-1.1652-0.54688-1.8281-0.54688zm0 0.8457c0.35982 0 0.71965 0.10128 1 0.30469l1.6797 1.2188h-5.3594l1.6797-1.2188c0.28035-0.2034 0.64018-0.30469 1-0.30469zm-8 2.5234h16c1.108 0 2 0.892 2 2v4h-0.19922l-1.3145 1h-0.0059l-7.4688 5.7949c-0.56803 0.44064-1.4574 0.4425-2.0254 2e-3l-7.4726-5.7969-1.3145-1h-0.19922v-4c0-1.108 0.892-2 2-2zm-3 5.0371v0.96289h-1.3281zm22 0 1.3281 0.96289h-1.3281zm-0.91016 1.9629h2.9102v8.2578l-6.7773-5.2578z" fill="currentColor"/>
 <path class="ColorScheme-Text" d="m6.5159 16 0.72852 0.72656-4.2402 4.2285 8.9961 0.04492v1l-9.0605-0.01758 4.3047 4.291-0.72852 0.72656-5.5156-5.5z" fill="currentColor"/>
</svg>

<svg xmlns="http://www.w3.org/2000/svg" viewBox="0 0 32 32"><defs><style id="current-color-scheme" type="text/css">.ColorScheme-Text{color:#dedede}</style></defs><path fill="currentColor" d="M16 2.63c-.663 0-1.327.183-1.83.548L11.658 5H8C6.338 5 5 6.338 5 8v1.832L2.012 12H2v4h1v-3h2.91l3.867 3 .803.623 3.604 2.795c.999.775 2.634.775 3.632 0l3.604-2.795L29 22.504V23c0 1.662-1.338 3-3 3H9v1h17a3.987 3.987 0 0 0 3.986-3.732l.014.011V12h-.014L27 9.832V8c0-1.662-1.338-3-3-3h-3.66l-2.512-1.822c-.503-.365-1.165-.547-1.828-.547zm0 .847c.36 0 .72.1 1 .304l1.68 1.22h-5.36L15 3.78c.28-.203.64-.304 1-.304zM8 6h16c1.108 0 2 .892 2 2v4h-.2l-1.314 1h-.006l-7.468 5.795c-.568.44-1.458.442-2.026.002L7.514 13l-1.315-1H6V8c0-1.108.893-2 2-2zm-3 5.037V12H3.672zm22 0 1.328.963H27zM26.09 13H29v8.258L22.223 16z" class="ColorScheme-Text"/><path fill="currentColor" d="m6.516 16 .728.727-4.24 4.228L12 21v1l-9.06-.018 4.305 4.291-.729.727L1 21.5z" class="ColorScheme-Text"/></svg>
